X: 1
T: Breezy Day, The
M: 6/8
L: 1/8
R: jig
K: Dmaj
M:7/8
|:FGA d2B2|A2G FED2|G2E FGA2|C2D E2G2|
fga d2B2|A2G FED2|G2E FGA2|D/E/DCD4:|
|:=cBBA B^cd|A2G FED2|G2E FGA2|C2D E2G2|
=cBBA B^cd|A2G FED2|G2E FGA2|D/E/DCD4:|
